X: 9114
T: Da Thabh Air An Fharaidh
R: reel
M: 4/4
K: Ddorian
d2fe dedc|Ac c/c/c cdec|d2fe dedc|AGAc d2D2:|
|:d/d/d a2 dedc|Ac c/c/c cdec|d/d/d a2 dedc|AGAc d2D2:|

